X: 37534
T: Sloe, The
R: polka
M: 2/4
K: Dmajor
af fd|d2 AA|dd ee|f/e/f/g/ fa|
af fd|d2 Ad|ge dc|d3:|
d2 Af|d2 Af|df df|d2 Aa|
af fd|d2 Ad|ge dc|d3:|

